src/icons/brand/glyph/GoogleIcon.svg

<svg width="24" height="24" viewBox="0 0 24 24" fill="none" xmlns="http://www.w3.org/2000/svg">
<path d="M15.7047 7.91293C14.757 7.02693 13.4917 6.54201 12.1822 6.56298C9.78704 6.56298 7.75412 8.14542 7.02717 10.2779C6.64286 11.3953 6.64285 12.6053 7.02716 13.7227C7.75412 15.8552 9.78704 17.4376 12.1822 17.4376C13.4231 17.4376 14.4842 17.1251 15.3081 16.5776L15.3081 16.5764C15.7863 16.2655 16.1953 15.8629 16.5105 15.3928C16.8257 14.9228 17.0405 14.3951 17.142 13.8415H12.1822V10.3753H20.8418C20.9479 10.9798 21.0008 11.592 21 12.2053C21 14.9439 20.0014 17.2601 18.2682 18.8263H18.2665L18.2682 18.8276C16.7467 20.2025 14.6602 21 12.1822 21C10.4801 20.9999 8.81153 20.5362 7.36277 19.6606C5.91401 18.785 4.74207 17.532 3.97779 16.0414C3.33485 14.7875 3 13.4036 3 12.0003C3 10.5969 3.33484 9.21306 3.97778 7.95916C4.74206 6.46862 5.91401 5.2156 7.36277 4.34C8.81153 3.46439 10.4801 3.00067 12.1822 3.00059C14.462 2.97449 16.6637 3.81441 18.3256 5.34426L15.7047 7.91293Z" fill="currentColor"/>
</svg>

<svg xmlns="http://www.w3.org/2000/svg" width="24" height="24" fill="currentColor" viewBox="0 0 24 24">
  <path d="M15.705 7.913a5.041 5.041 0 0 0-3.523-1.35c-2.395 0-4.428 1.582-5.155 3.715a5.29 5.29 0 0 0 0 3.445c.727 2.132 2.76 3.715 5.155 3.715 1.241 0 2.302-.313 3.126-.86v-.002a4.21 4.21 0 0 0 1.203-1.183c.315-.47.53-.998.631-1.552h-4.96v-3.466h8.66c.106.605.159 1.217.158 1.83 0 2.739-.999 5.055-2.732 6.621h-.002l.002.002C16.747 20.203 14.66 21 12.182 21a9.322 9.322 0 0 1-4.82-1.34 9.07 9.07 0 0 1-3.384-3.619A8.854 8.854 0 0 1 3 12.001c0-1.404.335-2.788.978-4.042A9.07 9.07 0 0 1 7.363 4.34 9.322 9.322 0 0 1 12.183 3a8.923 8.923 0 0 1 6.143 2.344l-2.621 2.569Z"/>
</svg>
